Numix/16/status/indicator-keyboard-Hu-3.svg

<?xml version="1.0" encoding="UTF-8" standalone="no"?>
<svg
   xmlns:dc="http://purl.org/dc/elements/1.1/"
   xmlns:cc="http://creativecommons.org/ns#"
   xmlns:rdf="http://www.w3.org/1999/02/22-rdf-syntax-ns#"
   xmlns:svg="http://www.w3.org/2000/svg"
   xmlns="http://www.w3.org/2000/svg"
   xmlns:sodipodi="http://sodipodi.sourceforge.net/DTD/sodipodi-0.dtd"
   xmlns:inkscape="http://www.inkscape.org/namespaces/inkscape"
   viewBox="0 0 16 16"
   id="svg2"
   version="1.1"
   inkscape:version="0.91 r13725"
   sodipodi:docname="indicator-keyboard-Hu-3.svg">
  <metadata
     id="metadata14">
    <rdf:RDF>
      <cc:Work
         rdf:about="">
        <dc:format>image/svg+xml</dc:format>
        <dc:type
           rdf:resource="http://purl.org/dc/dcmitype/StillImage" />
      </cc:Work>
    </rdf:RDF>
  </metadata>
  <defs
     id="defs12" />
  <sodipodi:namedview
     pagecolor="#ffffff"
     bordercolor="#666666"
     borderopacity="1"
     objecttolerance="10"
     gridtolerance="10"
     guidetolerance="10"
     inkscape:pageopacity="0"
     inkscape:pageshadow="2"
     inkscape:window-width="640"
     inkscape:window-height="480"
     id="namedview10"
     showgrid="false"
     inkscape:zoom="14.75"
     inkscape:cx="8"
     inkscape:cy="8"
     inkscape:window-x="65"
     inkscape:window-y="24"
     inkscape:window-maximized="0"
     inkscape:current-layer="svg2" />
  <path
     style="fill:#ececec;fill-opacity:1"
     d="M 1.5996094 0 C 0.71320937 2.9605947e-16 0 0.71320937 0 1.5996094 L 0 14.400391 C 2.9605947e-16 15.286791 0.71320937 16 1.5996094 16 L 14.400391 16 C 15.286791 16 16 15.286791 16 14.400391 L 16 1.5996094 C 16 0.71320937 15.286791 0 14.400391 0 L 1.5996094 0 z M 1.3261719 4.859375 L 1.9375 4.859375 L 1.9375 7.5683594 L 5.3222656 7.5683594 L 5.3222656 4.859375 L 5.9335938 4.859375 L 5.9335938 11.095703 L 5.3222656 11.095703 L 5.3222656 8.0996094 L 1.9375 8.0996094 L 1.9375 11.095703 L 1.3261719 11.095703 L 1.3261719 4.859375 z M 7.4589844 6.4433594 L 8.0429688 6.4433594 L 8.0429688 8.8632812 C 8.0429688 9.1932813 8.0672344 9.4731719 8.1152344 9.7011719 C 8.1632344 9.9291721 8.2416094 10.115766 8.3496094 10.259766 C 8.4576094 10.397766 8.5956719 10.498453 8.7636719 10.564453 C 8.9376719 10.624453 9.1485312 10.654297 9.3945312 10.654297 C 9.6705312 10.654297 9.9092814 10.639375 10.113281 10.609375 C 10.317281 10.579375 10.446 10.553297 10.5 10.529297 L 10.5 6.4433594 L 11.085938 6.4433594 L 11.085938 10.933594 C 10.911937 10.981594 10.678766 11.035703 10.384766 11.095703 C 10.090766 11.155703 9.7306875 11.185547 9.3046875 11.185547 C 8.9566875 11.185547 8.6656406 11.135203 8.4316406 11.033203 C 8.1976406 10.931203 8.0072813 10.787563 7.8632812 10.601562 C 7.7192812 10.415563 7.6148281 10.189781 7.5488281 9.9257812 C 7.4888281 9.6617812 7.4589844 9.3707344 7.4589844 9.0527344 L 7.4589844 6.4433594 z M 13.304688 8.7539062 C 13.507487 8.7539062 13.681872 8.7793781 13.826172 8.8300781 C 13.974372 8.8807781 14.095859 8.953275 14.193359 9.046875 C 14.290859 9.136575 14.363356 9.2463 14.410156 9.375 C 14.456956 9.4997999 14.480469 9.6350031 14.480469 9.7832031 C 14.480469 10.021103 14.415809 10.217041 14.287109 10.369141 C 14.162309 10.517341 14.001634 10.625106 13.802734 10.691406 C 13.911934 10.718706 14.015787 10.759859 14.117188 10.818359 C 14.222487 10.872959 14.316538 10.945456 14.398438 11.035156 C 14.480338 11.120956 14.546956 11.226762 14.597656 11.351562 C 14.648356 11.476363 14.673828 11.623316 14.673828 11.791016 C 14.673828 11.962616 14.642478 12.119372 14.580078 12.263672 C 14.521578 12.407972 14.431447 12.535331 14.310547 12.644531 C 14.193547 12.749831 14.044628 12.834084 13.861328 12.896484 C 13.678028 12.954984 13.462497 12.984375 13.216797 12.984375 C 13.088097 12.984375 12.968575 12.974578 12.859375 12.955078 C 12.754075 12.939478 12.661978 12.919884 12.580078 12.896484 C 12.498178 12.873084 12.427641 12.849572 12.369141 12.826172 C 12.314541 12.802772 12.273394 12.783178 12.246094 12.767578 L 12.345703 12.427734 C 12.369103 12.443334 12.408291 12.462928 12.462891 12.486328 C 12.517491 12.509728 12.58215 12.533241 12.65625 12.556641 C 12.73425 12.576141 12.818509 12.593775 12.912109 12.609375 C 13.009609 12.624975 13.115416 12.632813 13.228516 12.632812 C 13.599016 12.632812 13.865491 12.556397 14.025391 12.404297 C 14.185291 12.248297 14.263672 12.040597 14.263672 11.779297 C 14.263672 11.607697 14.230363 11.464662 14.164062 11.351562 C 14.101662 11.238462 14.015444 11.148331 13.902344 11.082031 C 13.793144 11.011831 13.663825 10.962847 13.515625 10.935547 C 13.371325 10.904347 13.216534 10.888672 13.052734 10.888672 L 12.994141 10.888672 L 12.994141 10.574219 L 13.128906 10.574219 C 13.234206 10.574219 13.341972 10.564422 13.451172 10.544922 C 13.564272 10.521522 13.666159 10.480375 13.755859 10.421875 C 13.849459 10.363375 13.925875 10.285 13.984375 10.1875 C 14.046775 10.09 14.076172 9.9646001 14.076172 9.8125 C 14.076172 9.6838 14.056572 9.5760281 14.013672 9.4863281 C 13.970772 9.3927281 13.911991 9.3182719 13.837891 9.2636719 C 13.767691 9.2090719 13.683437 9.1698844 13.585938 9.1464844 C 13.492337 9.1191844 13.392409 9.1054687 13.287109 9.1054688 C 13.076509 9.1054688 12.913875 9.1348594 12.796875 9.1933594 C 12.679875 9.2518594 12.583866 9.3067219 12.509766 9.3574219 L 12.345703 9.0585938 C 12.384703 9.0312937 12.433687 8.9999437 12.492188 8.9648438 C 12.554588 8.9297437 12.627084 8.8964344 12.708984 8.8652344 C 12.790884 8.8340344 12.879062 8.8085625 12.976562 8.7890625 C 13.077962 8.7656625 13.187688 8.7539062 13.304688 8.7539062 z "
     id="path4" />
</svg>

<svg xmlns="http://www.w3.org/2000/svg" viewBox="0 0 16 16">
 <path d="m 1.6 0 c -0.886 0 -1.6 0.713 -1.6 1.6 l 0 12.801 c 0 0.886 0.713 1.6 1.6 1.6 l 12.801 0 c 0.886 0 1.6 -0.713 1.6 -1.6 l 0 -12.801 c 0 -0.886 -0.713 -1.6 -1.6 -1.6 l -12.801 0 z m -0.273 4.859 l 0.611 0 l 0 2.709 l 3.385 0 l 0 -2.709 l 0.611 0 l 0 6.236 l -0.611 0 l 0 -2.996 l -3.385 0 l 0 2.996 l -0.611 0 l 0 -6.236 z m 6.133 1.584 l 0.584 0 l 0 2.42 c 0 0.33 0.024 0.61 0.072 0.838 c 0.048 0.228 0.126 0.415 0.234 0.559 c 0.108 0.138 0.246 0.239 0.414 0.305 c 0.174 0.06 0.385 0.09 0.631 0.09 c 0.276 0 0.515 -0.015 0.719 -0.045 c 0.204 -0.03 0.333 -0.056 0.387 -0.08 l 0 -4.086 l 0.586 0 l 0 4.49 c -0.174 0.048 -0.407 0.102 -0.701 0.162 c -0.294 0.06 -0.654 0.09 -1.08 0.09 c -0.348 0 -0.639 -0.05 -0.873 -0.152 c -0.234 -0.102 -0.424 -0.246 -0.568 -0.432 c -0.144 -0.186 -0.248 -0.412 -0.314 -0.676 c -0.06 -0.264 -0.09 -0.555 -0.09 -0.873 l 0 -2.609 z m 5.846 2.311 c 0.203 0 0.377 0.025 0.521 0.076 c 0.148 0.051 0.27 0.123 0.367 0.217 c 0.098 0.09 0.17 0.199 0.217 0.328 c 0.047 0.125 0.07 0.26 0.07 0.408 c 0 0.238 -0.065 0.434 -0.193 0.586 c -0.125 0.148 -0.285 0.256 -0.484 0.322 c 0.109 0.027 0.213 0.068 0.314 0.127 c 0.105 0.055 0.199 0.127 0.281 0.217 c 0.082 0.086 0.149 0.192 0.199 0.316 c 0.051 0.125 0.076 0.272 0.076 0.439 c 0 0.172 -0.031 0.328 -0.094 0.473 c -0.059 0.144 -0.149 0.272 -0.27 0.381 c -0.117 0.105 -0.266 0.19 -0.449 0.252 c -0.183 0.059 -0.399 0.088 -0.645 0.088 c -0.129 0 -0.248 -0.01 -0.357 -0.029 c -0.105 -0.016 -0.197 -0.035 -0.279 -0.059 c -0.082 -0.023 -0.152 -0.047 -0.211 -0.07 c -0.055 -0.023 -0.096 -0.043 -0.123 -0.059 l 0.1 -0.34 c 0.023 0.016 0.063 0.035 0.117 0.059 c 0.055 0.023 0.119 0.047 0.193 0.07 c 0.078 0.019 0.162 0.037 0.256 0.053 c 0.098 0.016 0.203 0.023 0.316 0.023 c 0.37 0 0.637 -0.076 0.797 -0.229 c 0.16 -0.156 0.238 -0.364 0.238 -0.625 c 0 -0.172 -0.033 -0.315 -0.1 -0.428 c -0.062 -0.113 -0.149 -0.203 -0.262 -0.27 c -0.109 -0.07 -0.239 -0.119 -0.387 -0.146 c -0.144 -0.031 -0.299 -0.047 -0.463 -0.047 l -0.059 0 l 0 -0.314 l 0.135 0 c 0.105 0 0.213 -0.01 0.322 -0.029 c 0.113 -0.023 0.215 -0.065 0.305 -0.123 c 0.094 -0.059 0.17 -0.137 0.229 -0.234 c 0.062 -0.098 0.092 -0.223 0.092 -0.375 c 0 -0.129 -0.02 -0.236 -0.063 -0.326 c -0.043 -0.094 -0.102 -0.168 -0.176 -0.223 c -0.07 -0.055 -0.154 -0.094 -0.252 -0.117 c -0.094 -0.027 -0.194 -0.041 -0.299 -0.041 c -0.211 0 -0.373 0.029 -0.49 0.088 c -0.117 0.059 -0.213 0.113 -0.287 0.164 l -0.164 -0.299 c 0.039 -0.027 0.088 -0.059 0.146 -0.094 c 0.062 -0.035 0.135 -0.068 0.217 -0.1 c 0.082 -0.031 0.17 -0.057 0.268 -0.076 c 0.101 -0.023 0.211 -0.035 0.328 -0.035 z" style="fill:#ececec;fill-opacity:1"/>
</svg>
